assets/img/icons/search.svg

<?xml version="1.0" encoding="UTF-8"?>
<svg width="25px" height="25px" viewBox="0 0 25 25" version="1.1" xmlns="http://www.w3.org/2000/svg" xmlns:xlink="http://www.w3.org/1999/xlink">
    <!-- Generator: Sketch 46.2 (44496) - http://www.bohemiancoding.com/sketch -->
    <title>icon-search</title>
    <desc>Created with Sketch.</desc>
    <defs>
        <path d="M9.32784636,15.7407407 C10.493833,15.7407407 11.5683536,15.4492485 12.5514403,14.8662551 C13.5345271,14.2832618 14.3118398,13.5002335 14.8834019,12.5171468 C15.454964,11.53406 15.7407407,10.4595394 15.7407407,9.29355281 C15.7407407,8.12756619 15.454964,7.05304561 14.8834019,6.06995885 C14.3118398,5.08687209 13.5345271,4.30955933 12.5514403,3.73799726 C11.5683536,3.16643519 10.493833,2.88065844 9.32784636,2.88065844 C8.16185974,2.88065844 7.08733916,3.16643519 6.1042524,3.73799726 C5.12116564,4.30955933 4.33813735,5.08687209 3.75514403,6.06995885 C3.17215072,7.05304561 2.88065844,8.12756619 2.88065844,9.29355281 C2.88065844,10.4595394 3.17215072,11.53406 3.75514403,12.5171468 C4.33813735,13.5002335 5.12116564,14.2832618 6.1042524,14.8662551 C7.08733916,15.4492485 8.16185974,15.7407407 9.32784636,15.7407407 Z M17.9012346,15.7407407 L25,22.8395062 L22.8395062,25 L15.7407407,17.866941 L15.7407407,16.7352538 L15.3292181,16.3580247 C14.5290312,17.0667617 13.6088301,17.6097375 12.5685871,17.9869684 C11.5283441,18.3641994 10.448108,18.5528121 9.32784636,18.5528121 C7.63602263,18.5528121 6.07568158,18.1412936 4.64677641,17.3182442 C3.21787123,16.4951948 2.09191084,15.386381 1.26886145,13.9917695 C0.422949588,12.5514331 0,10.9853765 0,9.29355281 C0,7.60172908 0.417234053,6.04138803 1.25171468,4.61248285 C2.0861953,3.18357767 3.21787123,2.05761728 4.64677641,1.2345679 C6.07568158,0.411518519 7.63602263,0 9.32784636,0 C11.0196701,0 12.5857267,0.422949588 14.0260631,1.26886145 C15.4206746,2.09191084 16.5237728,3.21215569 17.3353909,4.62962963 C18.1470091,6.04710357 18.5528121,7.60172908 18.5528121,9.29355281 C18.5528121,10.436677 18.3641994,11.5283441 17.9869684,12.5685871 C17.6097375,13.6088301 17.0667617,14.5290312 16.3580247,15.3292181 L16.7352538,15.7407407 L17.9012346,15.7407407 Z" id="path-1"></path>
    </defs>
    <g id="Symbols" stroke="none" stroke-width="1" fill="none" fill-rule="evenodd">
        <g id="_Settings/Elements/Icon/Map/Search">
            <mask id="mask-2" fill="white">
                <use xlink:href="#path-1"></use>
            </mask>
            <use id="icon-search" fill="#D1D3D5" xlink:href="#path-1"></use>
        </g>
    </g>
</svg>

<svg width="25" height="25" viewBox="0 0 25 25" xmlns="http://www.w3.org/2000/svg" xmlns:xlink="http://www.w3.org/1999/xlink"><title>icon-search</title><defs><path d="M9.328 15.74c1.166 0 2.24-.29 3.223-.874a6.471 6.471 0 0 0 2.332-2.349 6.3 6.3 0 0 0 .858-3.223 6.3 6.3 0 0 0-.858-3.224 6.338 6.338 0 0 0-2.332-2.332 6.3 6.3 0 0 0-3.223-.857 6.3 6.3 0 0 0-3.224.857A6.471 6.471 0 0 0 3.755 6.07a6.205 6.205 0 0 0-.874 3.224c0 1.166.291 2.24.874 3.223a6.608 6.608 0 0 0 2.35 2.35 6.205 6.205 0 0 0 3.223.874zm8.573 0L25 22.84 22.84 25l-7.1-7.133v-1.132l-.41-.377a8.48 8.48 0 0 1-2.761 1.629 9.433 9.433 0 0 1-3.241.566c-1.692 0-3.252-.412-4.681-1.235a9.157 9.157 0 0 1-3.378-3.326A9.114 9.114 0 0 1 0 9.294C0 7.602.417 6.04 1.252 4.612a9.167 9.167 0 0 1 3.395-3.377C6.076.412 7.636 0 9.327 0c1.693 0 3.259.423 4.7 1.269a9.064 9.064 0 0 1 3.308 3.36c.812 1.418 1.218 2.973 1.218 4.665a9.532 9.532 0 0 1-.566 3.275 8.48 8.48 0 0 1-1.629 2.76l.377.412h1.166z" id="a"/></defs><use fill="#D1D3D5" xlink:href="#a" fill-rule="evenodd"/></svg>
